icons/ShieldCheck_filled_transparent.svg

<svg width="24" height="24" viewBox="0 0 24 24" fill="none" xmlns="http://www.w3.org/2000/svg">
<path fill-rule="evenodd" clip-rule="evenodd" d="M11.2445,2.68577c0.4938,-0.14108 1.0172,-0.14108 1.511,0l5,1.42859c1.1806,0.33731 1.9945,1.41637 1.9945,2.64419v8.01935c0,0.8438 -0.3874,1.641 -1.051,2.1623l-5,3.9286c-0.9972,0.7835 -2.4008,0.7835 -3.398,0l-5.00001,-3.9286c-0.66355,-0.5213 -1.05099,-1.3185 -1.05099,-2.1623v-8.01935c0,-1.22782 0.81393,-2.30688 1.99451,-2.64419zM16.0303,10.2802c0.2929,-0.29286 0.2929,-0.76773 0,-1.06063c-0.2929,-0.29289 -0.7677,-0.29289 -1.0606,0l-3.9697,3.96963l-1.96967,-1.9696c-0.29289,-0.2929 -0.76777,-0.2929 -1.06066,0c-0.29289,0.2929 -0.29289,0.7677 0,1.0606l2.50003,2.5c0.2929,0.2929 0.7677,0.2929 1.0606,0z" fill="#002B51"/>
</svg>

<svg width="24" height="24" viewBox="0 0 24 24" fill="none" xmlns="http://www.w3.org/2000/svg">
<path fill-rule="evenodd" clip-rule="evenodd" d="M11.2445 2.68577C11.7383 2.54469 12.2617 2.54469 12.7555 2.68577L17.7555 4.11436C18.9361 4.45167 19.75 5.53073 19.75 6.75855V14.7779C19.75 15.6217 19.3626 16.4189 18.699 16.9402L13.699 20.8688C12.7018 21.6523 11.2982 21.6523 10.301 20.8688L5.30099 16.9402C4.63744 16.4189 4.25 15.6217 4.25 14.7779V6.75855C4.25 5.53073 5.06393 4.45167 6.24451 4.11436L11.2445 2.68577ZM16.0303 10.2802C16.3232 9.98734 16.3232 9.51247 16.0303 9.21957C15.7374 8.92668 15.2626 8.92668 14.9697 9.21957L11 13.1892L9.03033 11.2196C8.73744 10.9267 8.26256 10.9267 7.96967 11.2196C7.67678 11.5125 7.67678 11.9873 7.96967 12.2802L10.4697 14.7802C10.7626 15.0731 11.2374 15.0731 11.5303 14.7802L16.0303 10.2802Z" fill="#002B51"/>
</svg>
